X: 100310
T: UNION JACK HORNPIPE
C: Composed by J.C. Paton, Edinburgh, 1884
R: hornpipe, reel
B: K\"ohler's Violin Repository, v.3, 1885 p.221 #1
F: http://www.archive.org/details/klersviolinrepos03rugg
Z: 2012 John Chambers <jc:trillian.mit.edu>
M: C|
L: 1/8
K: C
uG,2 |\
(CE)DF (EG)FA | (GB)Ac (Bd)ce | .f.g.a.g .f.e.d.c | .B.A.G.F .E.D.C.B, |
(CE)DF (EG)FA | (GB)Ac (Bd)ce |[1 dgab c'a^fa | g2g2 g2 :|[2 (fe)dc (Ba)gB | c2c2 c2 ||
|: u"_>"E2 |\
(A^G)AB (cB)Ac | (B^G)EG (Bf)ed | (ca)gf (ed)cc | (Bc)dc (BG)AB |
(cB)cd (ed)ce | (d^c)de (fe)dd | (^de)^fa (af)df |[1 e2e'2 e2 :|[2 (ef)dB "_D.C."G2 |]

%%sep 2 1 500

